X:2235
T:Partekpolska
R:Polska
O:Umeå, Västerbotten
M:3/4
L:1/8
K:Am
|: A>(B c/d/)c/B/ BG | A>B (c/B/)c/d/ e2 |A>(B c/d/)c/B/ BG | A(A/c/) BA/G/ E2 |A>(B c/d/)c/B/ BG | A>B (c/B/)c/d/ e2 | ag/f/ ec B/A/G | Az A4 :|
|: e(e/^f/ g)(e f)d | ^ff (a^g) e2 | e(e/^f/ g)(e f)d | ec eB eA |e(e/^f/ g)(e f)d | ^ff (a^g) e2| a=g/=f/ ec B/A/G | Az A4 :|
(:musicend:)

(:music:)

